src/assets/img/logo-choira.svg

<svg width="121" height="43" viewBox="0 0 121 43" fill="none" xmlns="http://www.w3.org/2000/svg">
<path d="M17.1869 33.4599C16.3576 34.1412 15.3358 34.6891 14.1214 35.1038C12.9367 35.4888 11.7371 35.6813 10.5228 35.6813C8.44948 35.6813 6.62795 35.2815 5.05817 34.4818C3.48839 33.6821 2.25923 32.5418 1.37068 31.0608C0.511742 29.5799 0.0822754 27.8176 0.0822754 25.774C0.0822754 23.7303 0.541361 21.968 1.45953 20.4871C2.40732 19.0061 3.63649 17.8806 5.14703 17.1106C6.65757 16.3109 8.28658 15.911 10.0341 15.911C11.6038 15.911 12.9959 16.1332 14.2103 16.5774C15.4246 16.9921 16.4761 17.5697 17.3646 18.3101L14.8767 21.5533C14.4028 21.1683 13.7808 20.8129 13.0107 20.4871C12.2703 20.1316 11.4261 19.9539 10.4783 19.9539C9.47131 19.9539 8.55314 20.2057 7.72383 20.7092C6.92413 21.2127 6.27253 21.9088 5.76901 22.7973C5.29512 23.6562 5.05817 24.6485 5.05817 25.774C5.05817 27.3733 5.60611 28.7506 6.70199 29.9057C7.79787 31.0312 9.21956 31.594 10.967 31.594C12.4183 31.594 13.6623 31.1793 14.699 30.35L17.1869 33.4599Z" fill="white"/>
<path d="M22.2891 35.1926V0.539062H27.1762V19.6429C27.8278 18.4582 28.7756 17.4956 30.0196 16.7551C31.2931 15.9851 32.8037 15.6 34.5512 15.6C36.2987 15.6 37.75 16.1332 38.9051 17.1994C40.0898 18.2361 40.697 19.5837 40.7266 21.2423V35.1926H35.7507V23.0194C35.6915 22.0717 35.4101 21.3164 34.9066 20.7536C34.4327 20.1613 33.6478 19.8503 32.5519 19.8207C31.0118 19.8207 29.7382 20.4871 28.7312 21.8199C27.7537 23.1527 27.265 24.8262 27.265 26.8402V35.1926H22.2891Z" fill="white"/>
<path d="M46.0284 25.5962C46.0284 23.7007 46.4727 21.9976 47.3613 20.4871C48.2794 18.9765 49.5234 17.777 51.0932 16.8884C52.6926 15.9999 54.5289 15.5556 56.6022 15.5556C58.7051 15.5556 60.5266 15.9999 62.0668 16.8884C63.6366 17.777 64.8509 18.9765 65.7099 20.4871C66.5688 21.9976 66.9983 23.7007 66.9983 25.5962C66.9983 27.4918 66.5688 29.2097 65.7099 30.7498C64.8509 32.2604 63.6366 33.4599 62.0668 34.3485C60.497 35.237 58.6607 35.6813 56.5578 35.6813C54.5141 35.6813 52.6926 35.2815 51.0932 34.4818C49.5234 33.6525 48.2794 32.4825 47.3613 30.972C46.4727 29.4614 46.0284 27.6695 46.0284 25.5962ZM49.8612 25.5962C49.8612 26.7217 50.6193 28.5771 51.0932 29.4953C51.5671 30.3838 52.8542 31.3326 53.6539 31.8657C54.4832 32.3692 55.4618 32.8139 56.4984 32.8139C58.1274 32.8139 59.999 31.8753 61.006 30.7498C62.013 29.5947 63.1356 27.2845 63.1356 25.5962C63.1356 23.908 61.7722 21.1687 60.7652 20.0136C59.7581 18.8585 57.6533 18.5913 56.0243 18.5913C54.9877 18.5913 54.0091 18.9768 53.1798 19.5395C52.3801 20.0726 51.2833 20.5177 50.8094 21.4358C50.3355 22.3244 49.8612 24.5004 49.8612 25.5962Z" fill="white"/>
<path d="M72.2268 16.3997H77.2027V35.1926H72.2268V16.3997ZM72.0047 9.69115C72.0047 8.92107 72.3009 8.28428 72.8933 7.78077C73.5152 7.27725 74.1817 7.0255 74.8925 7.0255C75.5737 7.0255 76.2105 7.27725 76.8029 7.78077C77.3953 8.28428 77.6914 8.92107 77.6914 9.69115C77.6914 10.4612 77.3953 11.098 76.8029 11.6015C76.2105 12.0754 75.5737 12.3124 74.8925 12.3124C74.1817 12.3124 73.5152 12.0754 72.8933 11.6015C72.3009 11.098 72.0047 10.4612 72.0047 9.69115Z" fill="white"/>
<path d="M88.5151 16.3997L88.8705 20.7536C89.4037 19.6874 90.1293 18.7692 91.0475 17.9991C91.9657 17.1994 92.8986 16.5922 93.8464 16.1776C94.8238 15.7629 95.6235 15.5556 96.2455 15.5556L96.0234 20.5315C94.6017 20.413 93.3577 20.6648 92.2915 21.2868C91.2548 21.9088 90.4403 22.7529 89.848 23.8191C89.2852 24.8558 89.0038 25.9517 89.0038 27.1068V35.1926H84.0279V16.3997H88.5151Z" fill="white"/>
<path d="M108.727 35.6813C106.949 35.6813 105.35 35.3111 103.928 34.5706C102.507 33.8302 101.366 32.7343 100.507 31.283C99.6781 29.8317 99.2635 28.0101 99.2635 25.8184C99.2635 23.6859 99.6929 21.8643 100.552 20.3538C101.44 18.8136 102.596 17.6289 104.017 16.7996C105.469 15.9703 107.038 15.5556 108.727 15.5556C110.474 15.5556 111.881 15.8962 112.947 16.5774C114.043 17.229 114.917 18.0139 115.568 18.9321L115.924 16.3997H120.5V35.1926H115.524V32.4381C115.198 32.8231 114.724 33.2674 114.102 33.7709C113.48 34.2744 112.71 34.7187 111.792 35.1038C110.904 35.4888 109.882 35.6813 108.727 35.6813ZM110.104 31.594C111.437 31.594 112.577 31.2386 113.525 30.5277C114.473 29.8169 115.139 28.8395 115.524 27.5955V23.5081C115.169 22.353 114.487 21.42 113.48 20.7092C112.473 19.9984 111.289 19.6429 109.926 19.6429C108.889 19.6429 107.942 19.8947 107.083 20.3982C106.253 20.8721 105.572 21.5681 105.039 22.4863C104.536 23.3749 104.284 24.3967 104.284 25.5518C104.284 26.6773 104.55 27.6992 105.084 28.6173C105.617 29.5355 106.313 30.2611 107.172 30.7943C108.06 31.3274 109.038 31.594 110.104 31.594Z" fill="white"/>
<path fill-rule="evenodd" clip-rule="evenodd" d="M67.5266 36.0249C68.2764 36.7495 68.2328 37.8849 67.4291 38.561C63.1054 42.1986 58.5044 43.0304 54.512 42.4755C50.6248 41.9352 47.4285 40.103 45.6236 38.5454C44.8296 37.8601 44.8019 36.7242 45.5619 36.0083C46.3219 35.2923 47.5816 35.2674 48.3757 35.9527C49.7089 37.1033 52.1857 38.5209 55.1184 38.9285C57.946 39.3215 61.3117 38.7992 64.7138 35.937C65.5174 35.2609 66.7767 35.3002 67.5266 36.0249Z" fill="white"/>
<path d="M45.5945 25.6796C45.5945 23.7148 46.0565 21.9497 46.9806 20.384C47.9354 18.8184 49.2291 17.5751 50.8616 16.6541C52.525 15.7332 54.4347 15.2727 56.5908 15.2727C58.7778 15.2727 60.6721 15.7332 62.2738 16.6541C63.9064 17.5751 65.1692 18.8184 66.0625 20.384C66.9558 21.9497 67.4024 23.7148 67.4024 25.6796C67.4024 27.6443 66.9558 29.4248 66.0625 31.0211C65.1692 32.5868 63.9064 33.83 62.2738 34.751C60.6413 35.672 58.7316 36.1325 56.5446 36.1325C54.4193 36.1325 52.525 35.718 50.8616 34.8892C49.2291 34.0296 47.9354 32.817 46.9806 31.2514C46.0565 29.6857 45.5945 27.8285 45.5945 25.6796ZM50.8154 25.7256C50.8154 26.8922 51.0619 27.9513 51.5547 28.9029C52.0475 29.8239 52.7098 30.5606 53.5414 31.1132C54.4039 31.6351 55.3742 31.896 56.4522 31.896C58.1464 31.896 59.5171 31.3128 60.5643 30.1462C61.6116 28.949 62.1352 27.4754 62.1352 25.7256C62.1352 23.9758 61.6116 22.5022 60.5643 21.305C59.5171 20.1077 58.1464 19.5091 56.4522 19.5091C55.3742 19.5091 54.4039 19.8008 53.5414 20.384C52.7098 20.9366 52.0475 21.6887 51.5547 22.6404C51.0619 23.5613 50.8154 24.5898 50.8154 25.7256Z" fill="#FFC701"/>
</svg>

<svg width="121" height="43" fill="none" xmlns="http://www.w3.org/2000/svg"><path d="M17.187 33.46c-.83.681-1.851 1.23-3.066 1.644a11.578 11.578 0 0 1-3.598.577c-2.074 0-3.895-.4-5.465-1.2-1.57-.799-2.799-1.94-3.687-3.42C.51 29.58.082 27.818.082 25.774s.46-3.806 1.378-5.287c.947-1.48 2.176-2.606 3.687-3.376 1.51-.8 3.14-1.2 4.887-1.2 1.57 0 2.962.222 4.176.666 1.215.415 2.266.993 3.155 1.733l-2.488 3.243c-.474-.385-1.096-.74-1.866-1.066-.74-.355-1.585-.533-2.533-.533a5.205 5.205 0 0 0-2.754.755c-.8.504-1.451 1.2-1.955 2.088-.474.86-.71 1.851-.71 2.977 0 1.6.547 2.977 1.643 4.132 1.096 1.125 2.518 1.688 4.265 1.688 1.451 0 2.695-.415 3.732-1.244l2.488 3.11ZM22.29 35.193V.539h4.886v19.104c.652-1.185 1.6-2.147 2.844-2.888 1.273-.77 2.784-1.155 4.531-1.155 1.748 0 3.199.533 4.354 1.6 1.185 1.036 1.792 2.384 1.822 4.042v13.95H35.75V23.02c-.06-.947-.34-1.703-.844-2.265-.474-.593-1.26-.904-2.355-.933-1.54 0-2.814.666-3.82 1.999-.978 1.333-1.467 3.006-1.467 5.02v8.353h-4.976ZM46.028 25.596c0-1.895.445-3.598 1.333-5.109a10.122 10.122 0 0 1 3.732-3.599c1.6-.888 3.436-1.332 5.51-1.332 2.102 0 3.924.444 5.464 1.332 1.57.889 2.784 2.088 3.643 3.6.859 1.51 1.288 3.213 1.288 5.108 0 1.896-.43 3.614-1.288 5.154-.86 1.51-2.073 2.71-3.643 3.599-1.57.888-3.406 1.332-5.51 1.332-2.043 0-3.864-.4-5.464-1.2-1.57-.828-2.814-1.998-3.732-3.509-.888-1.51-1.333-3.303-1.333-5.376Zm3.833 0c0 1.126.758 2.981 1.232 3.9.474.888 1.761 1.837 2.56 2.37.83.503 1.809.948 2.845.948 1.63 0 3.501-.939 4.508-2.064 1.007-1.155 2.13-3.465 2.13-5.154 0-1.688-1.364-4.427-2.37-5.582-1.008-1.155-3.113-1.423-4.742-1.423-1.036 0-2.015.386-2.844.948-.8.534-1.897.979-2.37 1.897-.474.888-.949 3.064-.949 4.16ZM72.227 16.4h4.976v18.793h-4.976V16.4Zm-.222-6.709c0-.77.296-1.407.888-1.91.622-.504 1.289-.755 2-.755.68 0 1.317.251 1.91.755.592.503.888 1.14.888 1.91s-.296 1.407-.888 1.91c-.593.474-1.23.711-1.91.711-.711 0-1.378-.237-2-.71-.592-.504-.888-1.14-.888-1.91ZM88.515 16.4l.356 4.354a8.552 8.552 0 0 1 2.177-2.755c.918-.8 1.85-1.407 2.798-1.821.978-.415 1.778-.622 2.4-.622l-.223 4.976c-1.421-.119-2.665.133-3.731.755a6.688 6.688 0 0 0-2.444 2.532 6.792 6.792 0 0 0-.844 3.288v8.086h-4.976V16.4h4.487ZM108.727 35.681c-1.778 0-3.377-.37-4.799-1.11-1.421-.74-2.562-1.837-3.421-3.288-.829-1.451-1.244-3.273-1.244-5.465 0-2.132.43-3.954 1.289-5.464.888-1.54 2.044-2.725 3.465-3.554a9.335 9.335 0 0 1 4.71-1.244c1.747 0 3.154.34 4.22 1.021 1.096.652 1.97 1.437 2.621 2.355l.356-2.532h4.576v18.793h-4.976v-2.755c-.326.385-.8.83-1.422 1.333-.622.503-1.392.948-2.31 1.333-.888.385-1.91.577-3.065.577Zm1.377-4.087c1.333 0 2.473-.355 3.421-1.066.948-.711 1.614-1.688 1.999-2.932v-4.088c-.355-1.155-1.037-2.088-2.044-2.799-1.007-.71-2.191-1.066-3.554-1.066a5.518 5.518 0 0 0-2.843.755c-.83.474-1.511 1.17-2.044 2.088-.503.889-.755 1.91-.755 3.066 0 1.125.266 2.147.8 3.065a6.138 6.138 0 0 0 2.088 2.177c.888.533 1.866.8 2.932.8Z" fill="#fff"/><path fill-rule="evenodd" clip-rule="evenodd" d="M67.527 36.025c.75.724.706 1.86-.098 2.536-4.324 3.638-8.925 4.47-12.917 3.914-3.887-.54-7.084-2.372-8.888-3.93-.794-.685-.822-1.82-.062-2.537.76-.716 2.02-.74 2.814-.055 1.333 1.15 3.81 2.568 6.742 2.975 2.828.394 6.194-.129 9.596-2.991.803-.676 2.063-.637 2.813.088Z" fill="#fff"/><path d="M45.594 25.68c0-1.965.462-3.73 1.387-5.296.954-1.566 2.248-2.809 3.88-3.73 1.664-.92 3.574-1.381 5.73-1.381 2.187 0 4.081.46 5.683 1.381 1.632.921 2.895 2.164 3.788 3.73.894 1.566 1.34 3.33 1.34 5.296 0 1.964-.446 3.745-1.34 5.341-.893 1.566-2.156 2.809-3.788 3.73-1.633.921-3.542 1.382-5.73 1.382-2.125 0-4.019-.415-5.682-1.244a9.822 9.822 0 0 1-3.881-3.638c-.925-1.565-1.387-3.423-1.387-5.571Zm5.221.046c0 1.166.247 2.225.74 3.177a6.002 6.002 0 0 0 1.986 2.21c.863.522 1.833.783 2.911.783 1.694 0 3.065-.583 4.112-1.75 1.048-1.197 1.571-2.67 1.571-4.42s-.523-3.224-1.57-4.421c-1.048-1.197-2.419-1.796-4.113-1.796-1.078 0-2.048.292-2.91.875-.832.553-1.495 1.305-1.987 2.256-.493.921-.74 1.95-.74 3.086Z" fill="#FFC701"/></svg>
